images/included.svg

<?xml version="1.0" encoding="UTF-8" standalone="no"?>
<svg width="140px" height="37px" viewBox="0 0 140 37" version="1.1" xmlns="http://www.w3.org/2000/svg" xmlns:xlink="http://www.w3.org/1999/xlink" xmlns:sketch="http://www.bohemiancoding.com/sketch/ns">
    <!-- Generator: Sketch 3.3.3 (12081) - http://www.bohemiancoding.com/sketch -->
    <title>included</title>
    <desc>Created with Sketch.</desc>
    <defs></defs>
    <g id="Page-1" stroke="none" stroke-width="1" fill="none" fill-rule="evenodd" sketch:type="MSPage">
        <g id="included" sketch:type="MSArtboardGroup" fill="#9B9B9B">
            <g id="Shape-+-Shape" sketch:type="MSLayerGroup" transform="translate(2.000000, 1.000000)">
                <path d="M19.1022867,1.60081547 L17.0796877,1.60081547 L19.1830661,3.8793009 L19.1830661,4.96386944 L14.8506343,4.96386944 L14.8506343,3.69405485 L16.953603,3.69405485 L14.8506343,1.41548764 L14.8506343,0.329365153 L19.1022867,0.329365153 L19.1022867,1.60081547 L19.1022867,1.60081547 Z M13.9918818,1.60081547 L11.9692829,1.60081547 L14.0725794,3.8793009 L14.0725794,4.96386944 L9.74014753,4.96386944 L9.74014753,3.69405485 L11.8433621,3.69405485 L9.74014753,1.41548764 L9.74014753,0.329365153 L13.9918818,0.329365153 L13.9918818,1.60081547 L13.9918818,1.60081547 Z M8.93145204,1.65242264 L6.74893281,1.65242264 L6.74893281,3.64089374 L8.93145204,3.64089374 L8.93145204,4.96386944 L5.1977384,4.96386944 L5.1977384,0.329365153 L8.93145204,0.329365153 L8.93145204,1.65242264 L8.93145204,1.65242264 Z" id="Shape" sketch:type="MSShapeGroup"></path>
                <path d="M12.1956865,11.9422064 L19.8402796,11.9422064 L19.7671194,12.7593337 L19.017329,21.1519199 L18.9985941,21.1519199 L18.4981614,26.9422287 L18.4522827,27.4566647 L12.2086718,29.1841757 L12.2086718,29.1846463 L12.1945805,29.1885721 L5.94539871,27.4566647 L5.51807062,22.6748632 L6.9294986,22.6748632 L8.58039745,22.6748632 L8.79766625,25.1037537 L12.1953178,26.0196788 L12.1981033,26.0188941 L12.1981033,26.0185338 L15.6006705,25.1017091 L15.9564192,21.1519199 L12.1904023,21.1519199 L12.1904023,18.106524 L16.2273255,18.106524 L16.5061211,14.9878477 L12.1956865,14.9878477 L4.84168627,14.9878477 L4.83193704,14.9878477 L4.77073801,14.3032961 L4.63170892,12.7593337 L4.55879442,11.9422064 L12.1956865,11.9422064 L12.1956865,11.9422064 Z M2.2236463,31.9115662 L0.00581677426,7.07960008 L24.3748239,7.07960008 L22.1549462,31.9075586 L12.1754097,34.6694831 L2.2236463,31.9115662 L2.2236463,31.9115662 Z M12.1904023,19.9984873 L12.1904023,21.1448863 L8.8455113,21.1524107 L8.77464493,20.4679409 L8.63553391,18.9239785 L8.56261944,18.1068512 L12.1904023,18.1068512 L12.1904023,19.9984873 L12.1904023,19.9984873 Z" id="Shape" sketch:type="MSShapeGroup"></path>
            </g>
            <g id="Group" sketch:type="MSLayerGroup" transform="translate(30.012512, 1.000000)">
                <path d="M12.8629867,15.4814638 L8.49233064,15.4814638 L8.77502705,18.6616635 L12.8629867,18.6616635 L19.2144928,18.6616635 L20.0480725,18.6616635 L19.9725959,19.4956103 L19.2456916,27.6716938 L19.1991659,28.1963812 L12.8683341,29.9579338 L12.8683341,29.9584476 L12.8540971,29.9624142 L6.51761141,28.1963812 L6.08423449,23.3201115 L7.51542739,23.3201115 L9.18946669,23.3201115 L9.40969736,25.7969892 L12.8547783,26.730922 L12.8576393,26.7298961 L16.307693,25.7950059 L16.6667514,21.7672499 L12.8629867,21.7672499 L5.9460198,21.7672499 L5.18573686,13.2090035 L5.11169088,12.3758091 L12.8576393,12.3758091 L12.8629867,12.3758091 L20.606517,12.3758091 L20.532539,13.2090035 L20.3915996,14.7834079 L20.3295426,15.4814638 L20.3195972,15.4814638 L12.8629867,15.4814638 L12.8629867,15.4814638 Z M2.76238191,32.521565 L0.513685611,7.19971792 L25.2229826,7.19971792 L22.9719021,32.5175984 L12.8532116,35.3339638 L2.76238191,32.521565 L2.76238191,32.521565 Z" id="Shape" sketch:type="MSShapeGroup"></path>
                <path d="M2.81265418,0.318323998 L4.38465033,0.318323998 L4.38465033,1.87761421 L5.82265518,1.87761421 L5.82265518,0.318323998 L7.39471944,0.318323998 L7.39471944,5.04023774 L5.8227233,5.04023774 L5.8227233,3.45906275 L4.38471845,3.45906275 L4.38471845,5.04023774 L2.81272231,5.04023774 L2.81272231,0.318323998 L2.81265418,0.318323998 L2.81265418,0.318323998 Z" id="Shape" sketch:type="MSShapeGroup"></path>
                <path d="M9.46194515,1.88417964 L8.07802724,1.88417964 L8.07802724,0.318323998 L12.4186085,0.318323998 L12.4186085,1.88417964 L11.0340775,1.88417964 L11.0340775,5.04023774 L9.46201327,5.04023774 L9.46201327,1.88417964 L9.46194515,1.88417964 L9.46194515,1.88417964 Z" id="Shape" sketch:type="MSShapeGroup"></path>
                <path d="M13.107502,0.318323998 L14.7466641,0.318323998 L15.7549705,1.97746349 L16.7622551,0.318323998 L18.4020303,0.318323998 L18.4020303,5.04023774 L16.8365055,5.04023774 L16.8365055,2.69979784 L15.7549705,4.37870202 L15.727927,4.37870202 L14.6456428,2.69979784 L14.6456428,5.04023774 L13.107502,5.04023774 L13.107502,0.318323998 L13.107502,0.318323998 Z" id="Shape" sketch:type="MSShapeGroup"></path>
                <path d="M19.1843839,0.318323998 L20.7568569,0.318323998 L20.7568569,3.47944295 L22.9675425,3.47944295 L22.9675425,5.04023774 L19.1843839,5.04023774 L19.1843839,0.318323998 L19.1843839,0.318323998 Z" id="Shape" sketch:type="MSShapeGroup"></path>
            </g>
            <g id="Group" sketch:type="MSLayerGroup" transform="translate(64.664800, 3.000000)">
                <path d="M2.81910191,16.1976026 C2.81910191,21.6005466 5.96856075,26.2697477 10.5355236,28.4824042 L4.00448018,10.6424558 C3.244796,12.3400637 2.81910191,14.2187049 2.81910191,16.1976026 L2.81910191,16.1976026 L2.81910191,16.1976026 Z" id="Shape" sketch:type="MSShapeGroup"></path>
                <path d="M25.7534356,15.5087935 C25.7534356,13.8218345 25.1456362,12.6535602 24.6243302,11.7442386 C23.9302978,10.6198591 23.2797727,9.66768174 23.2797727,8.54330214 C23.2797727,7.28853712 24.2343278,6.12052255 25.5788854,6.12052255 C25.6395872,6.12052255 25.6971627,6.12805478 25.7563013,6.1314313 C23.3204142,3.90656745 20.075083,2.54816936 16.5106115,2.54816936 C11.7274149,2.54816936 7.51919182,4.9948443 5.07106007,8.70069971 C5.39228456,8.71030979 5.69501192,8.71706282 5.95214782,8.71706282 C7.38424106,8.71706282 9.60102865,8.54382161 9.60102865,8.54382161 C10.3390894,8.50044638 10.426104,9.58119101 9.6888248,9.66820121 C9.6888248,9.66820121 8.9471167,9.75521142 8.1217808,9.79832694 L13.1076641,24.5835679 L16.1039356,15.6246339 L13.9707758,9.79780742 C13.2334965,9.7546919 12.5350352,9.66768174 12.5350352,9.66768174 C11.7972349,9.62456624 11.8837285,8.49992691 12.6215287,8.54330214 C12.6215287,8.54330214 14.8826052,8.71654336 16.2279444,8.71654336 C17.6597771,8.71654336 19.8768252,8.54330214 19.8768252,8.54330214 C20.615407,8.49992691 20.7021611,9.58067155 19.9646213,9.66768174 C19.9646213,9.66768174 19.2213501,9.7546919 18.3975774,9.79780742 L23.3454244,24.4711041 L24.7110843,19.9213795 C25.3029918,18.033388 25.7534356,16.6773275 25.7534356,15.5087935 L25.7534356,15.5087935 L25.7534356,15.5087935 Z" id="Shape" sketch:type="MSShapeGroup"></path>
                <path d="M16.7508134,17.3915904 L12.6428916,29.2922484 C13.8694325,29.6517174 15.1665749,29.8483345 16.5106115,29.8483345 C18.1050104,29.8483345 19.6340181,29.5735381 21.0572535,29.074593 C21.0205198,29.0161533 20.9871729,28.9540774 20.959818,28.8865471 L16.7508134,17.3915904 L16.7508134,17.3915904 Z" id="Shape" sketch:type="MSShapeGroup"></path>
                <path d="M28.524355,9.64872131 C28.5832331,10.0835126 28.61658,10.5502509 28.61658,11.0523128 C28.61658,12.4374632 28.3570994,13.9945563 27.5755313,15.9415069 L23.3933605,27.9964457 C27.463767,25.6300279 30.2016,21.2335453 30.2016,16.1978624 C30.2018606,13.8246916 29.5938007,11.5930747 28.524355,9.64872131 L28.524355,9.64872131 L28.524355,9.64872131 Z" id="Shape" sketch:type="MSShapeGroup"></path>
                <path d="M16.5106115,0.286423577 C7.71041547,0.286423577 0.550470312,7.42411719 0.550470312,16.1976026 C0.550470312,24.972127 7.71041547,32.1095608 16.5106115,32.1095608 C25.310547,32.1095608 32.4715343,24.972127 32.4715343,16.1976026 C32.4712737,7.42411719 25.310547,0.286423577 16.5106115,0.286423577 L16.5106115,0.286423577 L16.5106115,0.286423577 Z M16.5106115,31.3802335 C8.11396512,31.3802335 1.28227856,24.5692827 1.28227856,16.1976026 C1.28227856,7.82644198 8.1137046,1.01601061 16.5106115,1.01601061 C24.9069973,1.01601061 31.7381629,7.82644198 31.7381629,16.1976026 C31.7381629,24.5692827 24.9069973,31.3802335 16.5106115,31.3802335 L16.5106115,31.3802335 L16.5106115,31.3802335 Z" id="Shape" sketch:type="MSShapeGroup"></path>
            </g>
            <g id="Shape-+-INCLUDED" sketch:type="MSLayerGroup" transform="translate(105.000000, 2.000000)">
                <path d="M0.782414771,1.13309525 C0.782414771,0.984846148 1.09282897,0.872536201 1.27907752,0.872536201 C2.70476572,0.798411646 4.80006178,0.760226267 6.99513384,0.760226267 C13.1435528,0.760226267 15.5359596,4.17444824 15.5359596,8.54555088 C15.5359596,14.2508955 11.4495781,16.6992521 6.43860549,16.6992521 C5.59605259,16.6992521 5.30781078,16.6610667 4.72024098,16.6610667 L4.72024098,25.290962 C4.72024098,25.4773965 4.64707193,25.5515211 4.46525788,25.5515211 L1.03739787,25.5515211 C0.860018319,25.5515211 0.782414771,25.4796427 0.782414771,25.2932082 L0.782414771,1.13309525 L0.782414771,1.13309525 Z M4.71802373,13.0671488 C5.22798998,13.103088 5.63374574,13.103088 6.51399179,13.103088 C9.10816784,13.103088 11.5471368,12.175408 11.5471368,8.61518302 C11.5471368,5.7625107 9.80216534,4.31595878 6.83992674,4.31595878 C5.96189788,4.31595878 5.12156223,4.35414416 4.71802373,4.39232955 L4.71802373,13.0626564 L4.71802373,13.0671488 L4.71802373,13.0671488 Z M23.8018471,10.3986648 C22.0457895,10.3986648 21.4604369,11.2881595 21.4604369,12.029405 C21.4604369,12.8470214 21.8639754,13.4040786 24.2031684,14.6260107 C27.6842423,16.3331217 28.7773438,17.9616158 28.7773438,20.3695407 C28.7773438,23.9634586 26.0723055,25.8951895 22.4138521,25.8951895 C20.4737631,25.8951895 18.821916,25.4841351 17.8729353,24.929324 C17.7265972,24.8551994 17.688904,24.7428895 17.688904,24.5564551 L17.688904,21.2590354 C17.688904,21.0344155 17.7997663,20.960291 17.9461044,21.0726009 C19.3385339,21.9980347 20.9504707,22.4068429 22.4138521,22.4068429 C24.1699097,22.4068429 24.9016004,21.6655974 24.9016004,20.6682852 C24.9016004,19.8506688 24.3916341,19.1476086 22.1588689,17.9616158 C19.0103818,16.4454316 17.6955558,14.8888159 17.6955558,12.2922103 C17.6955558,9.40135259 19.9261037,6.99118137 23.8040643,6.99118137 C25.7064601,6.99118137 27.0501103,7.28992582 27.781801,7.6246094 C27.9658323,7.73691937 28.0035255,7.91661522 28.0035255,8.06711057 L28.0035255,11.1444028 C28.0035255,11.3308373 27.8926632,11.440901 27.6709387,11.3690226 C26.6842649,10.7715338 25.2319698,10.4031572 23.8040643,10.4031572 L23.8018471,10.3986648 L23.8018471,10.3986648 Z" id="Shape" sketch:type="MSShapeGroup"></path>
                <path d="M1.38187926,29.0843623 L2.20441207,29.0843623 L2.20441207,32.769942 L1.38187926,32.769942 L1.38187926,29.0843623 Z M5.6896312,29.0843623 L6.512164,29.0843623 L6.512164,32.769942 L5.6896312,32.769942 L3.93384002,30.460523 L3.93384002,32.769942 L3.11130721,32.769942 L3.11130721,29.0843623 L3.88111355,29.0843623 L5.6896312,31.4570531 L5.6896312,29.0843623 Z M9.11157857,32.0423169 C9.5158168,32.0423169 9.84623266,31.8823815 10.1028361,31.562506 L10.6301007,32.1055886 C10.211802,32.576614 9.7188145,32.8121232 9.15112342,32.8121232 C8.58343234,32.8121232 8.11592906,32.632855 7.74859953,32.2743133 C7.38127001,31.9157715 7.19760801,31.4632073 7.19760801,30.9166069 C7.19760801,30.3700065 7.38478508,29.9139272 7.75914483,29.5483552 C8.13350458,29.1827832 8.59134144,29 9.13266916,29 C9.73726894,29 10.2434379,29.2302366 10.6511913,29.6907167 L10.1397446,30.2707077 C9.87962607,29.9473171 9.55624034,29.7856243 9.16957768,29.7856243 C8.86024756,29.7856243 8.59573912,29.8866823 8.37604443,30.0888014 C8.15634974,30.2909206 8.04650404,30.5633379 8.04650404,30.9060616 C8.04650404,31.2487853 8.15019838,31.5238389 8.35759017,31.7312307 C8.56498196,31.9386225 8.81630891,32.0423169 9.11157857,32.0423169 L9.11157857,32.0423169 Z M11.2786362,32.769942 L11.2786362,29.0843623 L12.101169,29.0843623 L12.101169,32.0370442 L13.6724175,32.0370442 L13.6724175,32.769942 L11.2786362,32.769942 Z M15.7234769,32.0739527 C15.9554745,32.0739527 16.1391365,31.9887125 16.2744684,31.8182294 C16.4098004,31.6477463 16.4774653,31.4148734 16.4774653,31.1196038 L16.4774653,29.0843623 L17.2999981,29.0843623 L17.2999981,31.145967 C17.2999981,31.6802645 17.1523655,32.090648 16.8570958,32.3771299 C16.5618262,32.6636118 16.183957,32.8068505 15.7234769,32.8068505 C15.2629968,32.8068505 14.8842489,32.662733 14.5872216,32.3744936 C14.2901944,32.0862541 14.141683,31.6767494 14.141683,31.145967 L14.141683,29.0843623 L14.9642158,29.0843623 L14.9642158,31.1196038 C14.9642158,31.4148734 15.0327596,31.6477463 15.169849,31.8182294 C15.3069385,31.9887125 15.4914793,32.0739527 15.7234769,32.0739527 L15.7234769,32.0739527 Z M20.9697599,29.5668095 C21.3212714,29.8884425 21.4970245,30.3357342 21.4970245,30.9086979 C21.4970245,31.4816617 21.3256652,31.9351047 20.9829415,32.2690406 C20.6402178,32.6029766 20.1173522,32.769942 19.4143292,32.769942 L18.1541668,32.769942 L18.1541668,29.0843623 L19.4565104,29.0843623 C20.1138369,29.0843623 20.6182484,29.2451764 20.9697599,29.5668095 L20.9697599,29.5668095 Z M20.3660419,31.757594 C20.568161,31.5677777 20.669219,31.2918454 20.669219,30.9297885 C20.669219,30.5677317 20.568161,30.289163 20.3660419,30.0940741 C20.1639228,29.8989852 19.8537185,29.8014422 19.4354198,29.8014422 L18.9766996,29.8014422 L18.9766996,32.0423169 L19.4986916,32.0423169 C19.8748089,32.0423169 20.1639228,31.9474102 20.3660419,31.757594 L20.3660419,31.757594 Z M24.8662454,29.0843623 L24.8662454,29.8172602 L23.0313645,29.8172602 L23.0313645,30.5765212 L24.6817028,30.5765212 L24.6817028,31.2777832 L23.0313645,31.2777832 L23.0313645,32.0423169 L24.9242445,32.0423169 L24.9242445,32.769942 L22.2088317,32.769942 L22.2088317,29.0843623 L24.8662454,29.0843623 Z M28.4727354,29.5668095 C28.8242469,29.8884425 29,30.3357342 29,30.9086979 C29,31.4816617 28.8286407,31.9351047 28.485917,32.2690406 C28.1431933,32.6029766 27.6203278,32.769942 26.9173048,32.769942 L25.6571423,32.769942 L25.6571423,29.0843623 L26.9594859,29.0843623 C27.6168124,29.0843623 28.1212239,29.2451764 28.4727354,29.5668095 L28.4727354,29.5668095 Z M27.8690174,31.757594 C28.0711365,31.5677777 28.1721945,31.2918454 28.1721945,30.9297885 C28.1721945,30.5677317 28.0711365,30.289163 27.8690174,30.0940741 C27.6668983,29.8989852 27.356694,29.8014422 26.9383953,29.8014422 L26.4796751,29.8014422 L26.4796751,32.0423169 L27.0016671,32.0423169 C27.3777844,32.0423169 27.6668983,31.9474102 27.8690174,31.757594 L27.8690174,31.757594 Z" id="INCLUDED" sketch:type="MSShapeGroup"></path>
            </g>
        </g>
    </g>
</svg>

<svg width="140" height="37" xmlns="http://www.w3.org/2000/svg"><g id="Page-1" stroke="none" stroke-width="1" fill="none" fill-rule="evenodd"><g id="included" fill="#9B9B9B"><g id="Shape-+-Shape" transform="translate(2 1)"><path d="M19.102 1.6H17.08l2.103 2.28v1.084h-4.332v-1.27h2.103L14.85 1.415V.33h4.251v1.272zm-5.11 0h-2.023l2.104 2.28v1.084H9.74v-1.27h2.103L9.74 1.415V.33h4.252v1.272zm-5.06.052H6.748v1.989H8.93v1.323H5.198V.329H8.93v1.323zm3.264 10.29h7.644l-.073.817-.75 8.393H19l-.5 5.79-.047.515-6.243 1.727-.014.005-6.25-1.732-.427-4.782H8.58l.218 2.429 3.397.916.003-.001 3.403-.917.355-3.95H12.19v-3.045h4.037l.28-3.12H4.831l-.061-.684-.14-1.544-.072-.817h7.637zm-9.972 19.97L.006 7.08h24.369l-2.22 24.828-9.98 2.761-9.951-2.757zm9.966-11.914v1.147l-3.344.007-.071-.684-.14-1.544-.072-.817h3.627v1.891z" id="Shape"/></g><g id="Group" transform="translate(30.013 1)"><path d="M12.863 15.481h-4.37l.282 3.18h11.273l-.075.835-.727 8.176-.047.524-6.33 1.762-.015.004-6.336-1.766-.434-4.876H9.19l.22 2.477 3.446.934.003-.001 3.45-.935.359-4.028H5.946l-.76-8.558-.074-.833h15.495l-.074.833-.141 1.574-.062.698h-7.467zm-10.1 17.04L.512 7.2h24.71l-2.251 25.318-10.119 2.816-10.09-2.812zM2.813.318h1.572v1.56h1.438V.318h1.572V5.04H5.823V3.46H4.385v1.58H2.813V.318zm6.649 1.566H8.078V.318h4.34v1.566h-1.384V5.04H9.462V1.884zM13.108.318h1.639l1.008 1.66 1.007-1.66h1.64V5.04h-1.565V2.7l-1.082 1.679h-.027l-1.082-1.68V5.04h-1.538V.318zm6.076 0h1.573V3.48h2.21v1.56h-3.783V.318z" id="Shape"/></g><g id="Group" transform="translate(64.665 3)"><path d="M2.82 16.198c0 5.403 3.149 10.072 7.716 12.284l-6.532-17.84a13.563 13.563 0 00-1.185 5.556zm22.933-.689c0-1.687-.607-2.855-1.129-3.765-.694-1.124-1.344-2.076-1.344-3.2 0-1.255.954-2.423 2.299-2.423.06 0 .118.007.177.01a13.664 13.664 0 00-9.245-3.583A13.686 13.686 0 005.07 8.701c.321.01.624.016.881.016 1.432 0 3.649-.173 3.649-.173.738-.044.825 1.037.088 1.124 0 0-.742.087-1.567.13l4.986 14.786 2.996-8.96-2.133-5.826c-.738-.043-1.436-.13-1.436-.13-.738-.043-.651-1.168.087-1.125 0 0 2.26.174 3.606.174 1.432 0 3.649-.174 3.649-.174.738-.043.825 1.038.088 1.125 0 0-.744.087-1.567.13l4.947 14.673 1.366-4.55c.592-1.888 1.042-3.244 1.042-4.412z" id="Shape"/><path d="M16.75 17.392l-4.107 11.9a13.73 13.73 0 008.414-.217 1.197 1.197 0 01-.097-.188l-4.21-11.495zm11.774-7.743c.06.435.093.901.093 1.403 0 1.385-.26 2.943-1.041 4.89l-4.183 12.054c4.07-2.366 6.809-6.762 6.809-11.798 0-2.373-.608-4.605-1.678-6.55z" id="Shape"/><path d="M16.51.286C7.71.286.55 7.424.55 16.198c0 8.774 7.16 15.912 15.96 15.912s15.962-7.138 15.962-15.912C32.472 7.424 25.31.286 16.51.286zm0 31.094c-8.396 0-15.228-6.81-15.228-15.182S8.114 1.016 16.511 1.016c8.396 0 15.227 6.81 15.227 15.182 0 8.371-6.831 15.182-15.227 15.182z" id="Shape"/></g><g id="Shape-+-INCLUDED" transform="translate(105 2)"><path d="M.782 1.133c0-.148.31-.26.497-.26C2.705.798 4.8.76 6.995.76c6.149 0 8.541 3.414 8.541 7.786 0 5.705-4.086 8.153-9.097 8.153-.843 0-1.131-.038-1.719-.038v8.63c0 .186-.073.26-.255.26H1.037c-.177 0-.255-.071-.255-.258V1.133zm3.936 11.934c.51.036.916.036 1.796.036 2.594 0 5.033-.928 5.033-4.488 0-2.852-1.745-4.299-4.707-4.299-.878 0-1.718.038-2.122.076v8.675zM23.802 10.4c-1.756 0-2.342.89-2.342 1.63 0 .818.404 1.375 2.743 2.597 3.481 1.707 4.574 3.336 4.574 5.744 0 3.593-2.705 5.525-6.363 5.525-1.94 0-3.592-.41-4.541-.966-.146-.074-.184-.186-.184-.373V21.26c0-.225.11-.299.257-.186a8.152 8.152 0 004.468 1.334c1.756 0 2.488-.741 2.488-1.739 0-.817-.51-1.52-2.743-2.706-3.149-1.517-4.463-3.073-4.463-5.67 0-2.89 2.23-5.3 6.108-5.3 1.902 0 3.246.298 3.978.633.184.112.222.292.222.442v3.077c0 .187-.111.297-.333.225-.987-.597-2.439-.966-3.867-.966l-.002-.004z" id="Shape"/><path d="M1.382 29.084h.822v3.686h-.822v-3.686zm4.308 0h.822v3.686H5.69l-1.756-2.31v2.31H3.11v-3.686h.77l1.809 2.373v-2.373zm3.422 2.958c.404 0 .734-.16.99-.48l.528.544c-.418.47-.911.706-1.479.706-.568 0-1.035-.18-1.402-.538-.368-.358-.551-.81-.551-1.357 0-.547.187-1.003.561-1.369A1.891 1.891 0 019.133 29c.604 0 1.11.23 1.518.69l-.511.58c-.26-.323-.584-.484-.97-.484-.31 0-.574.1-.794.303-.22.202-.33.474-.33.817 0 .343.104.618.312.825.207.208.458.311.754.311zm2.167.728v-3.686h.822v2.953h1.571v.733H11.28zm4.444-.696a.666.666 0 00.551-.256c.136-.17.203-.403.203-.698v-2.036h.823v2.062c0 .534-.148.945-.443 1.231-.295.287-.673.43-1.134.43-.46 0-.839-.144-1.136-.433-.297-.288-.445-.697-.445-1.228v-2.062h.822v2.036c0 .295.069.528.206.698.137.17.321.256.553.256zm5.247-2.507c.351.321.527.769.527 1.342 0 .573-.171 1.026-.514 1.36-.343.334-.866.5-1.569.5h-1.26v-3.685h1.303c.657 0 1.161.161 1.513.483zm-.604 2.19c.202-.19.303-.465.303-.827 0-.362-.1-.64-.303-.836-.202-.195-.512-.293-.93-.293h-.46v2.241h.523c.376 0 .665-.095.867-.284zm4.5-2.673v.733h-1.835v.76h1.65v.7h-1.65v.765h1.893v.728H22.21v-3.686h2.657zm3.607.483c.351.321.527.769.527 1.342 0 .573-.171 1.026-.514 1.36-.343.334-.866.5-1.569.5h-1.26v-3.685h1.302c.658 0 1.162.161 1.514.483zm-.604 2.19c.202-.19.303-.465.303-.827 0-.362-.1-.64-.303-.836-.202-.195-.512-.293-.93-.293h-.46v2.241h.523c.376 0 .665-.095.867-.284z" id="INCLUDED"/></g></g></g></svg>
